resources/svg/volume-up-line.svg

<svg fill="currentColor" viewBox="0 0 24 24" xmlns="http://www.w3.org/2000/svg"><path d="M10 7.22056L6.60282 10.0001H3V14.0001H6.60282L10 16.7796V7.22056ZM5.88889 16.0001H2C1.44772 16.0001 1 15.5524 1 15.0001V9.00007C1 8.44778 1.44772 8.00007 2 8.00007H5.88889L11.1834 3.66821C11.3971 3.49335 11.7121 3.52485 11.887 3.73857C11.9601 3.8279 12 3.93977 12 4.05519V19.9449C12 20.2211 11.7761 20.4449 11.5 20.4449C11.3846 20.4449 11.2727 20.405 11.1834 20.3319L5.88889 16.0001ZM19.4057 20.1337L17.9896 18.7176C19.8369 17.0694 21 14.6706 21 12.0001C21 9.19083 19.7129 6.68221 17.6963 5.03174L19.1162 3.61175C21.4923 5.62946 23 8.63869 23 12.0001C23 15.2228 21.6141 18.1219 19.4057 20.1337ZM15.8631 16.5911L14.4411 15.1691C15.3892 14.4376 16 13.2902 16 12.0001C16 10.5697 15.2493 9.31476 14.1203 8.60766L15.5589 7.16906C17.0396 8.26166 18 10.0187 18 12.0001C18 13.8422 17.1698 15.4905 15.8631 16.5911Z"/></svg>

<svg xmlns="http://www.w3.org/2000/svg" viewBox="0 0 24 24" fill="currentColor">
    <g>
        <path fill="none" d="M0 0h24v24H0z"/>
        <path d="M10 7.22L6.603 10H3v4h3.603L10 16.78V7.22zM5.889 16H2a1 1 0 0 1-1-1V9a1 1 0 0 1 1-1h3.889l5.294-4.332a.5.5 0 0 1 .817.387v15.89a.5.5 0 0 1-.817.387L5.89 16zm13.517 4.134l-1.416-1.416A8.978 8.978 0 0 0 21 12a8.982 8.982 0 0 0-3.304-6.968l1.42-1.42A10.976 10.976 0 0 1 23 12c0 3.223-1.386 6.122-3.594 8.134zm-3.543-3.543l-1.422-1.422A3.993 3.993 0 0 0 16 12c0-1.43-.75-2.685-1.88-3.392l1.439-1.439A5.991 5.991 0 0 1 18 12c0 1.842-.83 3.49-2.137 4.591z"/>
    </g>
</svg>
